X: 4520
T: Booley House, The
R: slip jig
M: 9/8
K: Dmajor
A2GF2A dcA|B2 c d2 e fdB|A2GF2A dcA|BdB AFA D3|
f2 d d2 f agf|e2 d c2 e gfe|f2 d d2 f agf|efd cdB A3|
f2 d d2 f agf|e2 d c2 e gfe|d2 c B2 c dcB|efd cdB A3||

